X:1
T: Jackson's Rolling Jig
C:
R:Jig
Q:180
K:G
M:6/8
L:1/16
G6 B2G2B2|A2F2A2 c4A2|G6 B2G2B2|d2c2A2 e2c2A2|G6 B2G2B2|A2F2A2 c4A2|G2B2d2 d4f2|g2d2B2 c2A2F2|
G6 B2G2B2|A2F2A2 c4A2|G6 B2G2B2|d2c2A2 e2c2A2|G6 B2G2B2|A2F2A2 c4A2|G2B2d2 d4f2|g2d2B2 c2A2F2|
g2d2c2 B2G2B2|A2F2A2 c4A2|g2d2c2 B2G2B2|d2c2A2 e2c2A2|g2d2c2 B2G2B2|A2F2A2 c4A2|G2B2d2 d4f2|g2d2B2 c2A2F2|
g2d2c2 B2G2B2|A2F2A2 c4A2|g2d2c2 B2G2B2|d2c2A2 e2c2A2|g2d2c2 B2G2B2|A2F2A2 c4A2|G2B2d2 d4f2|g2d2B2 c2A2F2||
